X: 1
T: York Fusiliers  v.1
P: piffero primo b0015
O: Greenwood 1780
F: http://ancients.sudburymuster.org/mus/med/pdf/yorkmedC0.pdf
Z: 2020 John Chambers <jc:trillian.mit.edu>
M: 2/4
L: 1/16
K: D
z2 |:\
D4 F2A2 | d2ef g2e2 | f2d2 c2d2 | edcB AGFE |\
D4 F2A2 | d2ef g2e2 | f2d2 cdec | d8 :|
|:\
f2e2 e4 | f2a2 a4 | f2a2 f2d2 | edcB ABcd |\
f2e2 e4 | f2a2 a4 | f2a2 f2d2 | e8 :|
|:\
D2A2 A4 | D2B2 B4 | A2B2 AGFD | D2d2 c2d2 |\
D2A2 A4 | D2B2 B4 | A2B2 AGFE | TE4 D4 :|
|:\
A3G F2d2 | A3G F2d2 | B2A2 G2F2 | EDEF E4 |\
A3G F2d2 | A3G F2d2 | B2b2 fdec |1 d2d2 d4 :|2 d2d2 d2 |]
